X:4847
T:Entemediu (MQ 067)
T:Atardecer (MQ 067)
R:Marcha
C:Tradicional
S:Msica Tradicional Asturiana, (C) Tello & Tito. Asturies, 2001.
S:http://pagina.de/MusTradAst <telloytito@asturies.org>
N:Se toca en la zona de Gijn.
N:Lo aprend del gaitero Pepe Blanco.
A:Asturies
Z:Manolo Quirs 067
M:3/8
L:1/8
Q:3/8=66
K:C
A/B/
|cBc|A2 G/E/|GFD|C2 A/B/|
cBc|AGE|GAB|c2 B|cBc|AGE|GFD|
|: C2 C|E/F/E/D/E/F/|G2 A/G/|F/E/D/E/F/G/|
AGC|E/F/E/D/E/F/|G2 A/G/|F/E/D/C/B,/D/ :|
C C/D/E/F/|
|: A F/A/F/A/|G E/G/E/G/|F/E/D/E/F/G/|AGG|
A F/A/F/A/|G E/G/E/G/|F/E/D/C/B,/D/|[1 C C/D/E/F/ :|[2 C3||
